X:116
T:Over the Hills and Far Away. WCD3/2.116
M:C|
L:1/8
Z:vmp. Peter Dunk 2015 www.village-music-project.org.uk
B:Walsh, Compleat Country Dancing Master, 3rd Series, 2nd Bk, 3rd Ed., 1749
Q:1/2=100
K:C
G2|c2ed cded|c2 A4 G2|c2ed cded|f2 d4 G2|c2ed cded|
c2A2 f3A|A2GF G2e2|f2d4::ef|g3f e2d2|c2 A4 ef|
g3f e2dc|f2 d4 ef|g3f e2d2|c2A2 f3 A|A2GF G2e2|f2d4:|
W:
W:Each Strain Twice. (repeats added to notation accordingly)

